X:1
T:Last Trip in the Fall
M:4/4
L:1/8
K:G
 z4 z2 z F| GE FE ED B,A,| B,E EE E2 z B,| EE GA BB dB| AF DF E3 B,|\
 EE GA BB dB| AF DD A3 F| GE FE ED B,A,| B,E E3/2 F/2 E2 z2|
